; generated by PrusaSlicer 2.5.0+win64 on 2023-01-22 at 04:32:57 UTC


;
;

;
;
; 

; external perimeters extrusion width = 0.45mm
; perimeters extrusion width = 0.45mm
; infill extrusion width = 0.45mm
; solid infill extrusion width = 0.45mm
; top infill extrusion width = 0.40mm
; support material extrusion width = 0.35mm
; first layer extrusion width = 0.42mm

M73 P0 R132
M73 Q0 S134
M201 X1000 Y1000 Z200 E8000 ; sets maximum accelerations, mm/sec^2
M203 X200 Y200 Z12 E120 ; sets maximum feedrates, mm / sec
M204 P1250 R1250 T1250 ; sets acceleration (P, T) and retract acceleration (R), mm/sec^2
M205 X8.00 Y8.00 Z0.40 E4.50 ; sets the jerk limits, mm/sec
M205 S0 T0 ; sets the minimum extruding and travel feed rate, mm/sec
M107
;TYPE:Custom
M862.3 P "MK3SMMU2S" ; printer model check
M862.1 P0.4 ; nozzle diameter check
M115 U3.10.0 ; tell printer latest fw version
G90 ; use absolute coordinates
M83 ; extruder relative mode
M104 S215 ; set extruder temp
M140 S60 ; set bed temp
M190 S60 ; wait for bed temp
M109 S215 ; wait for extruder temp
G28 W ; home all without mesh bed level
G80 ; mesh bed leveling

; Send the filament type to the MMU2.0 unit.
; E stands for extruder number, F stands for filament type (0: default; 1:flex; 2: PVA)
M403 E0 F0
M403 E1 F0
M403 E2 F0
M403 E3 F0
M403 E4 F0


;go outside print area
G1 Y-3 F1000
G1 Z0.4 F1000
; select extruder
T0
; initial load
G1 X55 E29 F1073
G1 X5 E29 F1800
M73 Q0 S133
G1 X55 E8 F2000
G1 Z0.3 F1000
G92 E0
G1 X240 E25 F2200
G1 Y-2 F1000
M73 P0 R131
G1 X55 E25 F1400
G1 Z0.2 F1000
G1 X5 E4 F1000
G92 E0


M221 S95
G92 E0

; Don't change E values below. Excessive value can damage the printer.
M907 E430 ; set extruder motor current
G21 ; set units to millimeters
G90 ; use absolute coordinates
M83 ; use relative distances for extrusion
M900 K0.05 ; Filament gcode LA 1.5
M900 K30 ; Filament gcode LA 1.0
M107
;LAYER_CHANGE
;Z:0.2
;HEIGHT:0.2
;BEFORE_LAYER_CHANGE
G92 E0.0
;0.2


G1 E-.8 F2100
G1 Z.4 F720
;AFTER_LAYER_CHANGE
;0.2
G1 X82.314 Y76.47 F10800
G1 Z.2 F720
G1 E.8 F2100
M204 S800
;TYPE:Skirt/Brim
;WIDTH:0.42
G1 F1200
G1 X84.134 Y75.623 E.06293
G1 X165.866 Y75.623 E2.56265
G1 X167.686 Y76.47 E.06293
G1 X178.212 Y88.992 E.51289
G1 X178.769 Y90.521 E.05105
G1 X178.769 Y117.172 E.83561
G1 X178.298 Y118.593 E.04694
G1 X167.541 Y133.015 E.56412
G1 X167.015 Y133.541 E.02332
G1 X166.323 Y133.96 E.02536
G1 X156.501 Y137.84 E.33113
G1 X155.628 Y138.005 E.02785
G1 X96.679 Y138.005 E1.84833
G1 X95.957 Y137.893 E.02289
G1 X84.02 Y134.091 E.39282
G1 X83.174 Y133.68 E.02948
G1 X82.58 Y133.159 E.02478
G1 X71.831 Y121.057 E.5075
G1 X71.231 Y119.479 E.05295
G1 X71.231 Y90.521 E.90795
G1 X71.788 Y88.992 E.05105
G1 X82.276 Y76.516 E.51101
M204 S1000
; printing object MicroStepperEnclosure V7.2.stl id:0 copy 0
;WIPE_START
G1 F8640
G1 X84.134 Y75.623 E-.47607
G1 X85.364 Y75.623 E-.28393
;WIPE_END
G1 E-.04 F2100
G1 Z.6 F720
G1 X84.085 Y119.479 F10800
G1 Z.2 F720
G1 E.8 F2100
M204 S800
;TYPE:Support material
G1 F1200
G1 X73.608 Y119.479 E.32849
G1 X73.608 Y90.521 E.90795
G1 X84.085 Y90.521 E.32849
G1 X84.085 Y119.422 E.90617
M204 S1000
G1 X83.521 Y119.309 F10800
M204 S800
G1 F1200
G1 X83.521 Y90.861 E.89199
G1 X83.102 Y90.861 E.01314
G1 X83.102 Y119.139 E.88667
G1 X82.683 Y119.139 E.01314
G1 X82.683 Y90.861 E.88667
G1 X82.264 Y90.861 E.01314
G1 X82.264 Y119.139 E.88667
G1 X81.845 Y119.139 E.01314
G1 X81.845 Y90.861 E.88667
G1 X81.426 Y90.861 E.01314
G1 X81.426 Y119.139 E.88667
G1 X81.007 Y119.139 E.01314
G1 X81.007 Y90.861 E.88667
G1 X80.588 Y90.861 E.01314
G1 X80.588 Y119.139 E.88667
G1 X80.169 Y119.139 E.01314
G1 X80.169 Y90.861 E.88667
G1 X79.75 Y90.861 E.01314
G1 X79.75 Y119.139 E.88667
G1 X79.332 Y119.139 E.01314
G1 X79.332 Y90.861 E.88667
G1 X78.913 Y90.861 E.01314
G1 X78.913 Y119.139 E.88667
G1 X78.494 Y119.139 E.01314
G1 X78.494 Y90.861 E.88667
G1 X78.075 Y90.861 E.01314
G1 X78.075 Y119.139 E.88667
G1 X77.656 Y119.139 E.01314
M73 Q0 S132
G1 X77.656 Y90.861 E.88667
G1 X77.237 Y90.861 E.01314
G1 X77.237 Y119.139 E.88667
G1 X76.818 Y119.139 E.01314
G1 X76.818 Y90.861 E.88667
G1 X76.399 Y90.861 E.01314
G1 X76.399 Y119.139 E.88667
G1 X75.98 Y119.139 E.01314
G1 X75.98 Y90.861 E.88667
G1 X75.561 Y90.861 E.01314
G1 X75.561 Y119.139 E.88667
G1 X75.142 Y119.139 E.01314
M73 P0 R130
G1 X75.142 Y90.861 E.88667
G1 X74.723 Y90.861 E.01314
G1 X74.723 Y119.139 E.88667
G1 X74.304 Y119.139 E.01314
G1 X74.304 Y90.691 E.89199
M204 S1000
;WIPE_START
G1 F8640
G1 X74.304 Y93.982 E-.76
;WIPE_END
G1 E-.04 F2100
G1 Z.6 F720
G1 X114.101 Y135.628 F10800
G1 Z.2 F720
G1 E.8 F2100
M204 S800
G1 F1200
G1 X96.679 Y135.628 E.54626
G1 X96.679 Y131.916 E.11641
G1 X114.101 Y131.916 E.54626
G1 X114.101 Y135.572 E.11464
M204 S1000
M73 P1 R130
G1 X113.688 Y135.459 F10800
M204 S800
G1 F1200
G1 X113.688 Y132.255 E.10045
G1 X113.269 Y132.255 E.01314
G1 X113.269 Y135.289 E.09513
G1 X112.85 Y135.289 E.01314
M73 Q1 S132
G1 X112.85 Y132.255 E.09513
G1 X112.431 Y132.255 E.01314
G1 X112.431 Y135.289 E.09513
G1 X112.012 Y135.289 E.01314
G1 X112.012 Y132.255 E.09513
G1 X111.593 Y132.255 E.01314
G1 X111.593 Y135.289 E.09513
G1 X111.174 Y135.289 E.01314
G1 X111.174 Y132.255 E.09513
G1 X110.755 Y132.255 E.01314
G1 X110.755 Y135.289 E.09513
G1 X110.336 Y135.289 E.01314
G1 X110.336 Y132.255 E.09513
G1 X109.917 Y132.255 E.01314
G1 X109.917 Y135.289 E.09513
G1 X109.498 Y135.289 E.01314
G1 X109.498 Y132.255 E.09513
G1 X109.079 Y132.255 E.01314
G1 X109.079 Y135.289 E.09513
G1 X108.66 Y135.289 E.01314
G1 X108.66 Y132.255 E.09513
G1 X108.241 Y132.255 E.01314
G1 X108.241 Y135.289 E.09513
G1 X107.822 Y135.289 E.01314
G1 X107.822 Y132.255 E.09513
G1 X107.403 Y132.255 E.01314
G1 X107.403 Y135.289 E.09513
G1 X106.984 Y135.289 E.01314
G1 X106.984 Y132.255 E.09513
G1 X106.565 Y132.255 E.01314
G1 X106.565 Y135.289 E.09513
G1 X106.146 Y135.289 E.01314
G1 X106.146 Y132.255 E.09513
G1 X105.727 Y132.255 E.01314
G1 X105.727 Y135.289 E.09513
G1 X105.308 Y135.289 E.01314
G1 X105.308 Y132.255 E.09513
G1 X104.889 Y132.255 E.01314
G1 X104.889 Y135.289 E.09513
G1 X104.47 Y135.289 E.01314
G1 X104.47 Y132.255 E.09513
G1 X104.051 Y132.255 E.01314
G1 X104.051 Y135.289 E.09513
G1 X103.632 Y135.289 E.01314
G1 X103.632 Y132.255 E.09513
G1 X103.213 Y132.255 E.01314
G1 X103.213 Y135.289 E.09513
G1 X102.794 Y135.289 E.01314
G1 X102.794 Y132.255 E.09513
G1 X102.375 Y132.255 E.01314
G1 X102.375 Y135.289 E.09513
G1 X101.956 Y135.289 E.01314
G1 X101.956 Y132.255 E.09513
G1 X101.537 Y132.255 E.01314
G1 X101.537 Y135.289 E.09513
G1 X101.118 Y135.289 E.01314
G1 X101.118 Y132.255 E.09513
G1 X100.699 Y132.255 E.01314
G1 X100.699 Y135.289 E.09513
G1 X100.28 Y135.289 E.01314
G1 X100.28 Y132.255 E.09513
G1 X99.861 Y132.255 E.01314
G1 X99.861 Y135.289 E.09513
G1 X99.442 Y135.289 E.01314
G1 X99.442 Y132.255 E.09513
G1 X99.023 Y132.255 E.01314
G1 X99.023 Y135.289 E.09513
G1 X98.604 Y135.289 E.01314
G1 X98.604 Y132.255 E.09513
G1 X98.185 Y132.255 E.01314
G1 X98.185 Y135.289 E.09513
G1 X97.766 Y135.289 E.01314
G1 X97.766 Y132.255 E.09513
G1 X97.348 Y132.255 E.01314
G1 X97.348 Y135.459 E.10045
M204 S1000
;WIPE_START
G1 F8640
G1 X97.348 Y132.255 E-.73975
G1 X97.435 Y132.255 E-.02025
;WIPE_END
G1 E-.04 F2100
G1 Z.6 F720
G1 X134.865 Y135.628 F10800
G1 Z.2 F720
G1 E.8 F2100
M204 S800
G1 F1200
G1 X117.442 Y135.628 E.54626
G1 X117.442 Y131.916 E.11641
G1 X134.865 Y131.916 E.54626
G1 X134.865 Y135.572 E.11464
M204 S1000
G1 X134.217 Y135.459 F10800
M204 S800
G1 F1200
G1 X134.217 Y132.255 E.10045
G1 X133.799 Y132.255 E.01314
G1 X133.799 Y135.289 E.09513
G1 X133.38 Y135.289 E.01314
G1 X133.38 Y132.255 E.09513
G1 X132.961 Y132.255 E.01314
G1 X132.961 Y135.289 E.09513
G1 X132.542 Y135.289 E.01314
G1 X132.542 Y132.255 E.09513
G1 X132.123 Y132.255 E.01314
G1 X132.123 Y135.289 E.09513
G1 X131.704 Y135.289 E.01314
G1 X131.704 Y132.255 E.09513
G1 X131.285 Y132.255 E.01314
G1 X131.285 Y135.289 E.09513
G1 X130.866 Y135.289 E.01314
G1 X130.866 Y132.255 E.09513
G1 X130.447 Y132.255 E.01314
G1 X130.447 Y135.289 E.09513
G1 X130.028 Y135.289 E.01314
G1 X130.028 Y132.255 E.09513
G1 X129.609 Y132.255 E.01314
G1 X129.609 Y135.289 E.09513
G1 X129.19 Y135.289 E.01314
G1 X129.19 Y132.255 E.09513
G1 X128.771 Y132.255 E.01314
G1 X128.771 Y135.289 E.09513
G1 X128.352 Y135.289 E.01314
G1 X128.352 Y132.255 E.09513
G1 X127.933 Y132.255 E.01314
G1 X127.933 Y135.289 E.09513
G1 X127.514 Y135.289 E.01314
G1 X127.514 Y132.255 E.09513
G1 X127.095 Y132.255 E.01314
G1 X127.095 Y135.289 E.09513
G1 X126.676 Y135.289 E.01314
G1 X126.676 Y132.255 E.09513
G1 X126.257 Y132.255 E.01314
G1 X126.257 Y135.289 E.09513
G1 X125.838 Y135.289 E.01314
G1 X125.838 Y132.255 E.09513
G1 X125.419 Y132.255 E.01314
G1 X125.419 Y135.289 E.09513
G1 X125 Y135.289 E.01314
G1 X125 Y132.255 E.09513
G1 X124.581 Y132.255 E.01314
G1 X124.581 Y135.289 E.09513
G1 X124.162 Y135.289 E.01314
G1 X124.162 Y132.255 E.09513
G1 X123.743 Y132.255 E.01314
G1 X123.743 Y135.289 E.09513
G1 X123.324 Y135.289 E.01314
G1 X123.324 Y132.255 E.09513
G1 X122.905 Y132.255 E.01314
G1 X122.905 Y135.289 E.09513
G1 X122.486 Y135.289 E.01314
G1 X122.486 Y132.255 E.09513
G1 X122.067 Y132.255 E.01314
G1 X122.067 Y135.289 E.09513
G1 X121.648 Y135.289 E.01314
G1 X121.648 Y132.255 E.09513
G1 X121.229 Y132.255 E.01314
G1 X121.229 Y135.289 E.09513
G1 X120.81 Y135.289 E.01314
G1 X120.81 Y132.255 E.09513
G1 X120.391 Y132.255 E.01314
G1 X120.391 Y135.289 E.09513
G1 X119.972 Y135.289 E.01314
G1 X119.972 Y132.255 E.09513
G1 X119.553 Y132.255 E.01314
G1 X119.553 Y135.289 E.09513
G1 X119.134 Y135.289 E.01314
G1 X119.134 Y132.255 E.09513
G1 X118.715 Y132.255 E.01314
G1 X118.715 Y135.289 E.09513
G1 X118.296 Y135.289 E.01314
G1 X118.296 Y132.255 E.09513
G1 X117.877 Y132.255 E.01314
G1 X117.877 Y135.459 E.10045
M204 S1000
;WIPE_START
G1 F8640
G1 X117.877 Y132.255 E-.73975
G1 X117.965 Y132.255 E-.02025
;WIPE_END
G1 E-.04 F2100
G1 Z.6 F720
G1 X155.628 Y135.628 F10800
G1 Z.2 F720
G1 E.8 F2100
M204 S800
G1 F1200
G1 X138.206 Y135.628 E.54626
G1 X138.206 Y131.916 E.11641
G1 X155.628 Y131.916 E.54626
G1 X155.628 Y135.572 E.11464
M204 S1000
G1 X155.166 Y135.459 F10800
M204 S800
G1 F1200
G1 X155.166 Y132.255 E.10045
G1 X154.747 Y132.255 E.01314
G1 X154.747 Y135.289 E.09513
G1 X154.328 Y135.289 E.01314
G1 X154.328 Y132.255 E.09513
G1 X153.909 Y132.255 E.01314
G1 X153.909 Y135.289 E.09513
G1 X153.49 Y135.289 E.01314
G1 X153.49 Y132.255 E.09513
G1 X153.071 Y132.255 E.01314
G1 X153.071 Y135.289 E.09513
G1 X152.652 Y135.289 E.01314
G1 X152.652 Y132.255 E.09513
G1 X152.234 Y132.255 E.01314
G1 X152.234 Y135.289 E.09513
G1 X151.815 Y135.289 E.01314
G1 X151.815 Y132.255 E.09513
G1 X151.396 Y132.255 E.01314
G1 X151.396 Y135.289 E.09513
G1 X150.977 Y135.289 E.01314
G1 X150.977 Y132.255 E.09513
G1 X150.558 Y132.255 E.01314
G1 X150.558 Y135.289 E.09513
G1 X150.139 Y135.289 E.01314
G1 X150.139 Y132.255 E.09513
G1 X149.72 Y132.255 E.01314
G1 X149.72 Y135.289 E.09513
G1 X149.301 Y135.289 E.01314
G1 X149.301 Y132.255 E.09513
G1 X148.882 Y132.255 E.01314
G1 X148.882 Y135.289 E.09513
G1 X148.463 Y135.289 E.01314
G1 X148.463 Y132.255 E.09513
G1 X148.044 Y132.255 E.01314
G1 X148.044 Y135.289 E.09513
G1 X147.625 Y135.289 E.01314
G1 X147.625 Y132.255 E.09513
G1 X147.206 Y132.255 E.01314
G1 X147.206 Y135.289 E.09513
G1 X146.787 Y135.289 E.01314
G1 X146.787 Y132.255 E.09513
G1 X146.368 Y132.255 E.01314
G1 X146.368 Y135.289 E.09513
G1 X145.949 Y135.289 E.01314
G1 X145.949 Y132.255 E.09513
G1 X145.53 Y132.255 E.01314
G1 X145.53 Y135.289 E.09513
G1 X145.111 Y135.289 E.01314
G1 X145.111 Y132.255 E.09513
G1 X144.692 Y132.255 E.01314
G1 X144.692 Y135.289 E.09513
G1 X144.273 Y135.289 E.01314
G1 X144.273 Y132.255 E.09513
G1 X143.854 Y132.255 E.01314
G1 X143.854 Y135.289 E.09513
G1 X143.435 Y135.289 E.01314
G1 X143.435 Y132.255 E.09513
G1 X143.016 Y132.255 E.01314
G1 X143.016 Y135.289 E.09513
G1 X142.597 Y135.289 E.01314
G1 X142.597 Y132.255 E.09513
G1 X142.178 Y132.255 E.01314
G1 X142.178 Y135.289 E.09513
G1 X141.759 Y135.289 E.01314
G1 X141.759 Y132.255 E.09513
G1 X141.34 Y132.255 E.01314
G1 X141.34 Y135.289 E.09513
G1 X140.921 Y135.289 E.01314
G1 X140.921 Y132.255 E.09513
G1 X140.502 Y132.255 E.01314
G1 X140.502 Y135.289 E.09513
G1 X140.083 Y135.289 E.01314
G1 X140.083 Y132.255 E.09513
G1 X139.664 Y132.255 E.01314
G1 X139.664 Y135.289 E.09513
G1 X139.245 Y135.289 E.01314
G1 X139.245 Y132.255 E.09513
G1 X138.826 Y132.255 E.01314
G1 X138.826 Y135.459 E.10045
M204 S1000
;WIPE_START
G1 F8640
G1 X138.826 Y132.255 E-.73975
G1 X138.914 Y132.255 E-.02025
;WIPE_END
G1 E-.04 F2100
G1 Z.6 F720
G1 X176.392 Y117.172 F10800
G1 Z.2 F720
G1 E.8 F2100
M204 S800
G1 F1200
G1 X174.085 Y117.172 E.07234
G1 X174.085 Y119.479 E.07234
G1 X165.916 Y119.479 E.25615
G1 X165.916 Y90.521 E.90795
G1 X176.392 Y90.521 E.32849
G1 X176.392 Y117.115 E.83384
M204 S1000
G1 X175.696 Y117.002 F10800
M204 S800
G1 F1200
G1 X175.696 Y90.861 E.81965
G1 X175.277 Y90.861 E.01314
G1 X175.277 Y116.832 E.81433
G1 X174.858 Y116.832 E.01314
G1 X174.858 Y90.861 E.81433
G1 X174.439 Y90.861 E.01314
G1 X174.439 Y116.832 E.81433
G1 X174.02 Y116.832 E.01314
G1 X174.02 Y90.861 E.81433
G1 X173.601 Y90.861 E.01314
G1 X173.601 Y119.139 E.88667
G1 X173.182 Y119.139 E.01314
G1 X173.182 Y90.861 E.88667
G1 X172.763 Y90.861 E.01314
M73 Q1 S131
G1 X172.763 Y119.139 E.88667
G1 X172.344 Y119.139 E.01314
G1 X172.344 Y90.861 E.88667
G1 X171.925 Y90.861 E.01314
G1 X171.925 Y119.139 E.88667
G1 X171.506 Y119.139 E.01314
G1 X171.506 Y90.861 E.88667
G1 X171.087 Y90.861 E.01314
G1 X171.087 Y119.139 E.88667
G1 X170.668 Y119.139 E.01314
G1 X170.668 Y90.861 E.88667
G1 X170.25 Y90.861 E.01314
M73 P1 R129
G1 X170.25 Y119.139 E.88667
G1 X169.831 Y119.139 E.01314
G1 X169.831 Y90.861 E.88667
G1 X169.412 Y90.861 E.01314
G1 X169.412 Y119.139 E.88667
G1 X168.993 Y119.139 E.01314
G1 X168.993 Y90.861 E.88667
G1 X168.574 Y90.861 E.01314
G1 X168.574 Y119.139 E.88667
G1 X168.155 Y119.139 E.01314
G1 X168.155 Y90.861 E.88667
G1 X167.736 Y90.861 E.01314
G1 X167.736 Y119.139 E.88667
G1 X167.317 Y119.139 E.01314
G1 X167.317 Y90.861 E.88667
G1 X166.898 Y90.861 E.01314
G1 X166.898 Y119.139 E.88667
G1 X166.479 Y119.139 E.01314
G1 X166.479 Y90.691 E.89199
M204 S1000
;WIPE_START
G1 F8640
G1 X166.479 Y93.982 E-.76
;WIPE_END
G1 E-.04 F2100
G1 Z.6 F720
G1 X164.649 Y130.649 F10800
G1 Z.2 F720
G1 E.8 F2100
M204 S800
;TYPE:Perimeter
;WIDTH:0.419999
G1 F1200
G1 X85.352 Y130.649 E2.48629
G1 X85.352 Y78.787 E1.62608
G1 X164.648 Y78.787 E2.48629
G1 X164.649 Y130.589 E1.6242
M204 S1000
G1 X164.968 Y131.026 F10800
M204 S800
;TYPE:External perimeter
M73 P2 R129
G1 F1200
G1 X85.032 Y131.026 E2.50634
G1 X84.975 Y130.967 E.00258
M73 Q2 S131
G1 X84.975 Y78.41 E1.64788
G1 X165.025 Y78.41 E2.50993
G1 X165.026 Y130.97 E1.64799
G1 X165.011 Y130.984 E.00062
M204 S1000
G1 X164.622 Y130.825 F10800
;WIPE_START
G1 F8640
G1 X161.72 Y130.986 E-.76
;WIPE_END
G1 E-.04 F2100
G1 Z.6 F720
G1 X107.947 Y91.879 F10800
G1 Z.2 F720
G1 E.8 F2100
M204 S800
;TYPE:Perimeter
G1 F1200
G1 X108.363 Y92.296 E.01847
G1 X108.773 Y92.97 E.02473
G1 X108.942 Y93.452 E.01601
G1 X109.032 Y94.126 E.02134
G1 X108.991 Y94.725 E.01884
G1 X108.826 Y95.304 E.01887
G1 X108.526 Y95.881 E.02041
G1 X108.182 Y96.31 E.01723
G1 X107.69 Y96.72 E.02008
G1 X107.208 Y96.985 E.01724
G1 X106.705 Y97.152 E.01662
G1 X106.204 Y97.228 E.01589
G1 X105.675 Y97.217 E.01658
G1 X104.909 Y97.03 E.02473
G1 X104.411 Y96.786 E.01738
G1 X104.004 Y96.485 E.01589
G1 X103.637 Y96.104 E.01658
G1 X103.227 Y95.43 E.02473
G1 X103.056 Y94.938 E.01635
G1 X102.968 Y94.274 E.02099
G1 X103.002 Y93.722 E.01734
G1 X103.173 Y93.096 E.02034
G1 X103.48 Y92.51 E.02073
G1 X103.819 Y92.089 E.01695
G1 X104.318 Y91.674 E.02036
G1 X104.793 Y91.415 E.01697
G1 X105.295 Y91.248 E.01658
G1 X105.928 Y91.166 E.02004
G1 X106.477 Y91.202 E.01724
G1 X106.972 Y91.327 E.016
G1 X107.566 Y91.602 E.02052
G1 X107.898 Y91.844 E.01289
M204 S1000
G1 X107.698 Y92.157 F10800
M204 S800
;TYPE:External perimeter
G1 F1200
G1 X108.091 Y92.557 E.01758
G1 X108.446 Y93.159 E.02192
G1 X108.574 Y93.535 E.01246
G1 X108.66 Y94.207 E.02123
G1 X108.615 Y94.682 E.01495
